media/Icon-reciclaje.svg

<svg xmlns="http://www.w3.org/2000/svg" width="133.966" height="133.966" viewBox="0 0 133.966 133.966">
  <path id="Icon_awesome-recycle" data-name="Icon awesome-recycle" d="M48.291,68.527a4.189,4.189,0,0,1-6.3,4.492l-10.659-6.66-13.309,21.3a8.388,8.388,0,0,0,7.1,12.816h13.6a3.14,3.14,0,0,1,3.14,3.14V114.08a3.14,3.14,0,0,1-3.14,3.14H25.149a25.135,25.135,0,0,1-21.3-38.431l13.3-21.3L6.49,50.835a4.189,4.189,0,0,1,1.277-7.629L36.61,36.547a4.186,4.186,0,0,1,5.021,3.137l6.66,28.844Zm25.789-47.86,10.8,17.289-10.66,6.661A4.189,4.189,0,0,0,75.5,52.246l28.844,6.659a4.186,4.186,0,0,0,5.021-3.137l6.659-28.844a4.189,4.189,0,0,0-6.3-4.492L99.08,29.085l-10.8-17.29a25.132,25.132,0,0,0-42.6,0l-4.7,7.527a3.14,3.14,0,0,0,1,4.326l8.875,5.546a3.14,3.14,0,0,0,4.327-1l4.7-7.521A8.382,8.382,0,0,1,74.079,20.667Zm56.037,58.121-7.2-11.53a3.14,3.14,0,0,0-4.327-1L109.73,71.8a3.14,3.14,0,0,0-1,4.327l7.212,11.542a8.387,8.387,0,0,1-7.1,12.81H83.728V87.92a4.189,4.189,0,0,0-7.146-2.96L55.65,105.887a4.186,4.186,0,0,0,0,5.92l20.932,20.929a4.189,4.189,0,0,0,7.146-2.961V117.22h25.087A25.134,25.134,0,0,0,130.116,78.789Z" transform="translate(0 0)" fill="#fdbbc9"/>
</svg>

<svg id="Capa_1" data-name="Capa 1" xmlns="http://www.w3.org/2000/svg" viewBox="0 0 133.88 133.96"><defs><style>.cls-1{fill:#fdbbc9;}</style></defs><path id="Icon_awesome-recycle" data-name="Icon awesome-recycle" class="cls-1" d="M48.29,68.53A4.19,4.19,0,0,1,42,73L31.33,66.36,18,87.66a8.38,8.38,0,0,0,7.1,12.81h13.6a3.14,3.14,0,0,1,3.14,3.14v10.47a3.14,3.14,0,0,1-3.14,3.14H25.15A25.13,25.13,0,0,1,3.85,78.79l13.3-21.3L6.49,50.83a4.18,4.18,0,0,1,1.28-7.62l28.84-6.66a4.18,4.18,0,0,1,5,3.13h0l6.66,28.85ZM74.08,20.67,84.88,38,74.22,44.62a4.19,4.19,0,0,0,1.28,7.63l28.84,6.65a4.17,4.17,0,0,0,5-3.13h0L116,26.92a4.19,4.19,0,0,0-3.14-5,4.27,4.27,0,0,0-3.16.53L99.08,29.08,88.28,11.79a25.13,25.13,0,0,0-42.6,0L41,19.32a3.14,3.14,0,0,0,1,4.33l8.87,5.54a3.13,3.13,0,0,0,4.33-1h0l4.7-7.52a8.38,8.38,0,0,1,14.2,0Zm56,58.12-7.2-11.53a3.14,3.14,0,0,0-4.33-1h0l-8.86,5.54a3.14,3.14,0,0,0-1,4.33h0l7.21,11.54a8.38,8.38,0,0,1-7.1,12.81H83.73V87.92a4.19,4.19,0,0,0-7.15-3L55.65,105.89a4.19,4.19,0,0,0,0,5.92h0l20.93,20.93a4.19,4.19,0,0,0,7.15-3V117.22h25.08a25.14,25.14,0,0,0,21.31-38.43Z" transform="translate(-0.04 0)"/></svg>
